X: 1927
T: Var mı Sen Gibi
C: Şivelioğlu Yorgaki
O: Turkey
F: http://compmusic.upf.edu/node/140
N: hicaz-humayun--sarki--agiraksak--var_mi_sen_gibi--sivelioglu_yorgaki
N: makam= hicaz-humayun
N: form= sarki
N: usul= agiraksak = 9/4
M: 9/4
L: 1/16
K: C _7/8B ^c  
Q: 1/4=87
%%MIDI tuningsystem comma53
A6B2 d2c3BA4d3ef3de8z4e2 f2d2 e2f2 g2e2 f2f3ed2 c2d8z4a8^g4=b2 a2g2 ^1/4f3e d2c2 d2cd e2f2  | 
w:   | 
edd4c2 e2d2 f2e2 d2c2 B2A3G^F2 G2A2 B2c2  | \
w:   | 
d2e4d3cB3dc3BA2 c2B3A^G2 c2BA A8 z4 a8 d3e ^f3d e2f2 gagf ^e4  | 
w:   | 
^f4 z4 a2b2 g2a2 f2g2 e2f2 d2cd f2ed d8 z4 a8 ^g4 =b2a2 g2^1/4f3ed2 c2d2  | 
w:   | 
cde2 ^1/4f2ed d4 c2e2 d2=f2 e2d2 c2B2 A3G ^F2G2  | \
w:   | 
A2B2 c2d2 e4 d3c B2d2 c3B A2c2 B3A ^G2c2  | 
w:   | 
BAA8z4ag ^fga3=c'=b2 c'2bc' a2b2 abg2  | \
w:   | 
a2ga ^f2g2 fge2 =f2ef d2ef edcB ABAB c2d2 e^fga  | 
w:   | 
gfed c3B cBBA A4 de^fg a4 agfg a3=c' =b2c'2  | 
w:   | 
=b=c'a2 b2ab g2a2 ga^f2 g2fg e2=f2 efd2 efed cBAB  | 
w:   | 
ABc2 d2e^f gag=f edc3BcB BAA8z4|
w:   | 


